images/icons/discord.svg

<?xml version="1.0" encoding="UTF-8"?>
<!DOCTYPE svg PUBLIC "-//W3C//DTD SVG 1.1//EN" "http://www.w3.org/Graphics/SVG/1.1/DTD/svg11.dtd">
<svg xmlns="http://www.w3.org/2000/svg" version="1.1" width="256px" height="256px" style="shape-rendering:geometricPrecision; text-rendering:geometricPrecision; image-rendering:optimizeQuality; fill-rule:evenodd; clip-rule:evenodd" xmlns:xlink="http://www.w3.org/1999/xlink">
<g><path style="opacity:1" fill="#463b78" d="M 15.5,-0.5 C 90.1667,-0.5 164.833,-0.5 239.5,-0.5C 239.5,4.83333 239.5,10.1667 239.5,15.5C 244.833,15.5 250.167,15.5 255.5,15.5C 255.5,90.1667 255.5,164.833 255.5,239.5C 250.167,239.5 244.833,239.5 239.5,239.5C 239.5,244.833 239.5,250.167 239.5,255.5C 164.833,255.5 90.1667,255.5 15.5,255.5C 15.5,250.167 15.5,244.833 15.5,239.5C 10.1667,239.5 4.83333,239.5 -0.5,239.5C -0.5,164.833 -0.5,90.1667 -0.5,15.5C 4.83333,15.5 10.1667,15.5 15.5,15.5C 15.5,10.1667 15.5,4.83333 15.5,-0.5 Z"/></g>
<g><path style="opacity:1" fill="#4b5bab" d="M 31.5,15.5 C 95.5,15.5 159.5,15.5 223.5,15.5C 223.5,20.8333 223.5,26.1667 223.5,31.5C 228.833,31.5 234.167,31.5 239.5,31.5C 239.5,95.5 239.5,159.5 239.5,223.5C 234.167,223.5 228.833,223.5 223.5,223.5C 223.5,228.833 223.5,234.167 223.5,239.5C 159.5,239.5 95.5,239.5 31.5,239.5C 31.5,234.167 31.5,228.833 31.5,223.5C 26.1667,223.5 20.8333,223.5 15.5,223.5C 15.5,159.5 15.5,95.5 15.5,31.5C 20.8333,31.5 26.1667,31.5 31.5,31.5C 31.5,26.1667 31.5,20.8333 31.5,15.5 Z"/></g>
<g><path style="opacity:1" fill="#feffea" d="M 63.5,47.5 C 74.1667,47.5 84.8333,47.5 95.5,47.5C 95.5,52.8333 95.5,58.1667 95.5,63.5C 116.833,63.5 138.167,63.5 159.5,63.5C 159.5,58.1667 159.5,52.8333 159.5,47.5C 170.167,47.5 180.833,47.5 191.5,47.5C 191.5,52.8333 191.5,58.1667 191.5,63.5C 196.833,63.5 202.167,63.5 207.5,63.5C 207.5,74.1667 207.5,84.8333 207.5,95.5C 212.833,95.5 218.167,95.5 223.5,95.5C 223.5,116.833 223.5,138.167 223.5,159.5C 218.167,159.5 212.833,159.5 207.5,159.5C 207.5,164.833 207.5,170.167 207.5,175.5C 202.167,175.5 196.833,175.5 191.5,175.5C 191.5,180.833 191.5,186.167 191.5,191.5C 186.167,191.5 180.833,191.5 175.5,191.5C 175.5,186.167 175.5,180.833 175.5,175.5C 143.5,175.5 111.5,175.5 79.5,175.5C 79.5,180.833 79.5,186.167 79.5,191.5C 74.1667,191.5 68.8333,191.5 63.5,191.5C 63.5,186.167 63.5,180.833 63.5,175.5C 58.1667,175.5 52.8333,175.5 47.5,175.5C 47.5,170.167 47.5,164.833 47.5,159.5C 42.1667,159.5 36.8333,159.5 31.5,159.5C 31.5,138.167 31.5,116.833 31.5,95.5C 36.8333,95.5 42.1667,95.5 47.5,95.5C 47.5,84.8333 47.5,74.1667 47.5,63.5C 52.8333,63.5 58.1667,63.5 63.5,63.5C 63.5,58.1667 63.5,52.8333 63.5,47.5 Z"/></g>
<g><path style="opacity:1" fill="#4b5bab" d="M 79.5,95.5 C 90.1667,95.5 100.833,95.5 111.5,95.5C 111.5,106.167 111.5,116.833 111.5,127.5C 100.833,127.5 90.1667,127.5 79.5,127.5C 79.5,116.833 79.5,106.167 79.5,95.5 Z"/></g>
<g><path style="opacity:1" fill="#4b5bab" d="M 143.5,95.5 C 154.167,95.5 164.833,95.5 175.5,95.5C 175.5,106.167 175.5,116.833 175.5,127.5C 164.833,127.5 154.167,127.5 143.5,127.5C 143.5,116.833 143.5,106.167 143.5,95.5 Z"/></g>
</svg>

<svg xmlns="http://www.w3.org/2000/svg" width="256" height="256" style="shape-rendering:geometricPrecision;text-rendering:geometricPrecision;image-rendering:optimizeQuality;fill-rule:evenodd;clip-rule:evenodd"><path style="opacity:1" fill="#463b78" d="M15.5-.5h224v16h16v224h-16v16h-224v-16h-16v-224h16v-16z"/><path style="opacity:1" fill="#4b5bab" d="M31.5 15.5h192v16h16v192h-16v16h-192v-16h-16v-192h16v-16z"/><path style="opacity:1" fill="#feffea" d="M63.5 47.5h32v16h64v-16h32v16h16v32h16v64h-16v16h-16v16h-16v-16h-96v16h-16v-16h-16v-16h-16v-64h16v-32h16v-16z"/><path style="opacity:1" fill="#4b5bab" d="M79.5 95.5h32v32h-32v-32zM143.5 95.5h32v32h-32v-32z"/></svg>
